X:155
T:Danza Dei Bastoni
L:1/16
M:2/4
Z:Andy Hornby
%%TUNEURL: http://www.leeds.ac.uk/music/Info/RRTuneBk/gettune/00000da2.html
%%ID:00000da2
K:C
c2d2 e2c2|f6f2|e2c2 c2d2|B4B4|
c2d2 e2c2|f6f2|e2c2 c2d2|c4c4:|
|:g4g2a2|f6f2|e2e2 d2c2|B4B4|
g4g2a2|f6f2|e2c2 d2d2|c4c4:|
